proprietary/assets/icons/op-kantoor/boeken-achter-elkaar.svg

<svg height="64" viewBox="0 0 64 64" width="64" xmlns="http://www.w3.org/2000/svg"><path d="m0 0h64v64h-64z" fill="none"/><path d="m58 12h-4v-4c0-1.1046-.8955-2-2-2-13.5958 0-17.6453 0-31.1666 0-4.8703 0-9.8334 1.8876-9.8334 7v8.4374c-3.3364.8106-6 2.8196-6 6.5626v25c0 2.7614 2.2385 5 5 5h22c1.1045 0 2-.8954 2-2v-26c0-1.1046-.8955-2-2-2-7.8915 0-7.4799 0-9 0v12l-4-3-4 3v-12c-1.2915 0-2.6956 0-4.325 0-.5472 0-.8049-.4951-.6108-1.0474.6072-1.7276 3.7571-1.9526 4.8821-1.9526h23.0537v29h6c1.1045 0 2-.8954 2-2v-37c0-1.1046-.8955-2-2-2-14.0287 0-20.935 0-27.325 0-.5472 0-.8049-.4951-.6108-1.0474.6072-1.7276 3.7571-1.9526 4.8821-1.9526h29.0537v38h2c1.1045 0 2-.8954 2-2v-31h3v29h1c1.1045 0 2-.8954 2-2v-28c0-1.1046-.8955-2-2-2z"/></svg>

<?xml version="1.0" encoding="utf-8"?>
<!-- Generator: Adobe Illustrator 17.1.0, SVG Export Plug-In . SVG Version: 6.00 Build 0)  -->
<svg version="1.2" baseProfile="tiny" xmlns="http://www.w3.org/2000/svg" xmlns:xlink="http://www.w3.org/1999/xlink" x="0px"
	 y="0px" width="64px" height="64px" viewBox="0 0 64 64" xml:space="preserve">
<g id="_x36_4px_Box">
	<rect fill="none" width="64" height="64"/>
</g>
<g id="Label" display="none">
</g>
<g id="Production">
	<path d="M58,12h-4V8c0-1.1046-0.8955-2-2-2C38.4042,6,34.3547,6,20.8334,6C15.9631,6,11,7.8876,11,13v8.4374
		C7.6636,22.248,5,24.257,5,28v25c0,2.7614,2.2385,5,5,5h22c1.1045,0,2-0.8954,2-2V30c0-1.1046-0.8955-2-2-2c-7.8915,0-7.4799,0-9,0
		v12l-4-3l-4,3V28c-1.2915,0-2.6956,0-4.325,0c-0.5472,0-0.8049-0.4951-0.6108-1.0474C10.6714,25.225,13.8213,25,14.9463,25
		C37.7419,25,15.212,25,38,25v29h6c1.1045,0,2-0.8954,2-2V15c0-1.1046-0.8955-2-2-2c-14.0287,0-20.935,0-27.325,0
		c-0.5472,0-0.8049-0.4951-0.6108-1.0474C16.6714,10.225,19.8213,10,20.9463,10C34.0811,10,36.5674,10,50,10v38h2
		c1.1045,0,2-0.8954,2-2V15h3v29h1c1.1045,0,2-0.8954,2-2V14C60,12.8954,59.1045,12,58,12z"/>
</g>
</svg>
